X:335
T:Old Ebenezer Scrooge
C:by Bill Monroe (key: A modal)
N:transcr. from recording by S.M. Block 11/2019
R:bluegrass
L:1/8
Q:1/4=260
M:4/4
K:C
|: "A"E2 AA cB AG | "G"G2 Bd BA AA | "A"A,2 AA cB AG | "E"EG GB "A"A2 A2 | "A"E2 AA cB GG | 
"G"G2 Bd BA AA | "A"A,2 AA cB AG |1 E"E"G GB "A"A2 A2 :|2 E"E"G G"A"B Ad ee | 
|: "A"e2 ee ge ee | "D"ea aa aa ac' | "A"e2 ee ge dA | "E"cA Bd AG E2 | "A"{d}ee ee ge ee | 
"D"ea aa aa ac' | "A"e2 cB AG GD |1 E"E"G GB "A"Ad ee :|2 E"E"G G"A"B A2 [G2D2] | 
|: "A"[A2E2] [A2E2] [A2E2] [A2E2] | "G"G,2 B,D GD ^FD | "A"[AE][AE] [AE][AE] [AE][AE] AA | 
"E"A^c de ec A2 | "A"[AE][AE] [AE][AE] [AE][AE] [AE][AE] | "G"G,2 B,D GD ^FD | 
"A"A,C EG ^FA FG |1 E"E"G GB "A"A2 [G2D2] :|2 E"E"G GB "A"A2 [A2D2] |: "A"A,C EG "G"^FA FG | 
"E"EE EA "A"cA cA | "A"A,C EG "G"^FA FG | "E"EE Ec "A"A2 [A2E2] | "A"A,C EG "G"^FA FG | 
"E"EE EA "A"cA cA | "A"A,C EG "G"^FA FG |1 E"E"G GB "A"A2 A2 :|2 E"E"G GB "A"A2 ee | 
a"A"e ge ^fe AA | cA BA AG EC | A,C EG ^FA FG | EG A[eA] [e4A4E4] | 


